!!!OTL: The Muffin Man
!!!COM: unknown
!!!ODT: unknown
!!!YOR: The Folksong Fake Book
!!!YOY: 2000
!!!AST: Children's song
!!!YEC: Brian Luke, 2001
**kern	**harm
*k[b-]	*k[b-]
*M2/4	*M2/4
*F:	*F:
*>A	*>A
=1	=1
8c	I
8f	.
8.f	.
16g	.
=2	=2
8a	.
8f	.
8.f	.
16e	.
=3	=3
8d	IV
8g	.
8.g	.
16f	.
=4	=4
8e	V7
8c	.
8c	.
8r	.
=5	=5
8c	I
8f	.
8.f	.
16g	.
=6	=6
8a	.
8f	.
8f	.
8f	.
=7	=7
8g	IV
8g	.
8c	V7
8c	.
=8	=8
2f	I;
*-	*-
